icons/KoraCustom/apps/scalable/org.kde.plasma.cryptocurrencyprice.svg

<svg clip-rule="evenodd" fill-rule="evenodd" stroke-linejoin="round" stroke-miterlimit="2" viewBox="0 0 48 48" xmlns="http://www.w3.org/2000/svg">
 <linearGradient id="a" x2="1" gradientTransform="matrix(0 -35.3911 35.3911 0 968.766 41.2823)" gradientUnits="userSpaceOnUse">
  <stop stop-color="#831f00" offset="0"/>
  <stop stop-color="#e31342" offset="1"/>
 </linearGradient>
 <circle cx="24" cy="24" r="22.764" fill="url(#a)"/>
 <path transform="matrix(1.1382 0 0 1.1382 -3.3168 -3.3168)" d="m24 10c-7.68 0-14 6.32-14 14s6.32 14 14 14c5.788-.002 11.005-3.593 13.072-9h-4.422c-1.782 3.087-5.085 4.996-8.65 5-5.486 0-10-4.514-10-10s4.514-10 10-10c3.563.006 6.863 1.915 8.645 5h4.414c-2.066-5.402-7.276-8.993-13.059-9zm0 9c-2.743 0-5 2.257-5 5s2.257 5 5 5c1.983-.001 3.787-1.182 4.58-3h5.42l6-4h-11.424c-.793-1.817-2.594-2.997-4.576-3z" fill="#fff" fill-rule="nonzero"/>
</svg>

<svg xmlns="http://www.w3.org/2000/svg" width="48" height="48" version="1">
 <rect style="fill:#de3529" width="40" height="40" x="4" y="4" rx="20" ry="20"/>
 <path style="opacity:0.1;fill:#ffffff" d="M 24,4 C 12.92,4 4,12.92 4,24 4,24.168 3.996,24.333 4,24.5 4.2644,13.654 13.088,5 24,5 34.912,5 43.736,13.654 44,24.5 44.004,24.333 44,24.168 44,24 44,12.92 35.08,4 24,4 Z"/>
 <path style="opacity:0.2" d="M 4.0117,24.5 C 4.0076,24.667 4,24.832 4,25 4,36.08 12.92,45 24,45 35.08,45 44,36.08 44,25 44,24.832 43.992,24.667 43.988,24.5 43.724,35.346 34.912,44 24,44 13.088,44 4.276,35.346 4.012,24.5 Z"/>
 <path style="opacity:0.2" d="M 24,11 A 14,14 0 0 0 10,25 14,14 0 0 0 24,39 14,14 0 0 0 37.072266,30 H 32.650391 A 10,10 0 0 1 24,35 10,10 0 0 1 14,25 10,10 0 0 1 24,15 a 10,10 0 0 1 8.644531,5 h 4.414063 A 14,14 0 0 0 24,11 Z m 0,9 a 5,5 0 0 0 -5,5 5,5 0 0 0 5,5 5,5 0 0 0 4.580078,-3 H 34 l 6,-4 H 28.576172 A 5,5 0 0 0 24,20 Z"/>
 <path style="fill:#ffffff" d="M 24,10 A 14,14 0 0 0 10,24 14,14 0 0 0 24,38 14,14 0 0 0 37.072266,29 H 32.650391 A 10,10 0 0 1 24,34 10,10 0 0 1 14,24 10,10 0 0 1 24,14 a 10,10 0 0 1 8.644531,5 h 4.414063 A 14,14 0 0 0 24,10 Z m 0,9 a 5,5 0 0 0 -5,5 5,5 0 0 0 5,5 5,5 0 0 0 4.580078,-3 H 34 l 6,-4 H 28.576172 A 5,5 0 0 0 24,19 Z"/>
</svg>
